img/place_service2.svg

<svg width="24" height="24" viewBox="0 0 24 24" fill="none" xmlns="http://www.w3.org/2000/svg">
<path d="M21.4062 9.125H3.59375C3.51577 9.12498 3.43855 9.14032 3.36651 9.17016C3.29446 9.19999 3.229 9.24372 3.17386 9.29886C3.11872 9.354 3.07499 9.41946 3.04516 9.49151C3.01532 9.56355 2.99998 9.64077 3 9.71875V20.4062C3 20.5637 3.06256 20.7147 3.17391 20.8261C3.28526 20.9374 3.43628 21 3.59375 21C3.75122 21 3.90224 20.9374 4.01359 20.8261C4.12494 20.7147 4.1875 20.5637 4.1875 20.4062V15.0625H5.375V20.4062C5.375 20.5637 5.43756 20.7147 5.54891 20.8261C5.66026 20.9374 5.81128 21 5.96875 21C6.12622 21 6.27724 20.9374 6.38859 20.8261C6.49994 20.7147 6.5625 20.5637 6.5625 20.4062V15.0625H18.4375V20.4062C18.4375 20.5637 18.5001 20.7147 18.6114 20.8261C18.7228 20.9374 18.8738 21 19.0312 21C19.1887 21 19.3397 20.9374 19.4511 20.8261C19.5624 20.7147 19.625 20.5637 19.625 20.4062V15.0625H20.8125V20.4062C20.8125 20.5637 20.8751 20.7147 20.9864 20.8261C21.0978 20.9374 21.2488 21 21.4062 21C21.5637 21 21.7147 20.9374 21.8261 20.8261C21.9374 20.7147 22 20.5637 22 20.4062V9.71875C22 9.64077 21.9847 9.56355 21.9548 9.49151C21.925 9.41946 21.8813 9.354 21.8261 9.29886C21.771 9.24372 21.7055 9.19999 21.6335 9.17016C21.5614 9.14032 21.4842 9.12498 21.4062 9.125ZM4.1875 10.3125H20.8125V13.875H4.1875V10.3125Z" fill="#FC6733"/>
<path d="M9.50342 2.00027C9.3699 2.00493 9.2417 2.05934 9.13954 2.1547C9.03738 2.25005 8.96722 2.38078 8.9404 2.52577C8.91358 2.67076 8.93168 2.82153 8.99175 2.95372C9.05183 3.08591 9.15038 3.19178 9.27148 3.25425C9.27148 3.25425 9.53125 3.42711 9.53125 3.65513C9.53125 3.81778 9.50274 3.86296 9.40137 3.98404C9.3 4.10513 9.10812 4.2538 8.88184 4.4363C8.68682 4.59358 8.43393 4.76799 8.19531 5.05301C7.95669 5.33803 7.75 5.78197 7.75 6.28644C7.75 7.38461 8.67773 7.85906 8.67773 7.85906C8.74818 7.90102 8.82556 7.9268 8.90521 7.93481C8.98487 7.94282 9.06517 7.9329 9.14128 7.90568C9.2174 7.87847 9.28777 7.8345 9.34817 7.77641C9.40857 7.71832 9.45775 7.64731 9.49277 7.56763C9.52779 7.48796 9.54792 7.40126 9.55195 7.31276C9.55598 7.22426 9.54383 7.13578 9.51624 7.0526C9.48864 6.96943 9.44616 6.89328 9.39135 6.82874C9.33654 6.76421 9.27052 6.71261 9.19727 6.67703C9.19727 6.67703 8.9375 6.51446 8.9375 6.28644C8.9375 6.12378 8.96601 6.06835 9.06738 5.94726C9.16875 5.82618 9.36063 5.67751 9.58691 5.495C9.78193 5.33772 10.0348 5.16329 10.2734 4.87828C10.5121 4.59326 10.7188 4.15961 10.7188 3.65513C10.7188 2.55697 9.79102 2.07222 9.79102 2.07222C9.70213 2.02183 9.60322 1.99709 9.50342 2.00027ZM13.0659 2.00027C12.9324 2.00493 12.8042 2.05934 12.702 2.1547C12.5999 2.25005 12.5297 2.38078 12.5029 2.52577C12.4761 2.67076 12.4942 2.82153 12.5543 2.95372C12.6143 3.08591 12.7129 3.19178 12.834 3.25425C12.834 3.25425 13.0937 3.42711 13.0937 3.65513C13.0937 3.81778 13.0652 3.86296 12.9639 3.98404C12.8625 4.10513 12.6706 4.2538 12.4443 4.4363C12.2493 4.59358 11.9964 4.76799 11.7578 5.05301C11.5192 5.33803 11.3125 5.78197 11.3125 6.28644C11.3125 7.38461 12.2402 7.85906 12.2402 7.85906C12.3107 7.90102 12.3881 7.9268 12.4677 7.93481C12.5474 7.94282 12.6277 7.9329 12.7038 7.90568C12.7799 7.87847 12.8503 7.8345 12.9107 7.77641C12.9711 7.71832 13.0203 7.64731 13.0553 7.56763C13.0903 7.48796 13.1104 7.40126 13.1144 7.31276C13.1185 7.22426 13.1063 7.13578 13.0787 7.0526C13.0511 6.96943 13.0087 6.89328 12.9538 6.82874C12.899 6.76421 12.833 6.71261 12.7598 6.67703C12.7598 6.67703 12.5 6.51446 12.5 6.28644C12.5 6.12378 12.5285 6.06835 12.6299 5.94726C12.7313 5.82618 12.9231 5.67751 13.1494 5.495C13.3444 5.33772 13.5973 5.16329 13.8359 4.87828C14.0746 4.59326 14.2812 4.15961 14.2812 3.65513C14.2812 2.55697 13.3535 2.07222 13.3535 2.07222C13.2646 2.02183 13.1657 1.99709 13.0659 2.00027ZM16.6284 2.00027C16.4949 2.00493 16.3667 2.05934 16.2645 2.1547C16.1624 2.25005 16.0922 2.38078 16.0654 2.52577C16.0386 2.67076 16.0567 2.82153 16.1168 2.95372C16.1768 3.08591 16.2754 3.19178 16.3965 3.25425C16.3965 3.25425 16.6562 3.42711 16.6562 3.65513C16.6562 3.81778 16.6277 3.86296 16.5264 3.98404C16.425 4.10513 16.2331 4.2538 16.0068 4.4363C15.8118 4.59358 15.5589 4.76799 15.3203 5.05301C15.0817 5.33803 14.875 5.78197 14.875 6.28644C14.875 7.38461 15.8027 7.85906 15.8027 7.85906C15.8732 7.90102 15.9506 7.9268 16.0302 7.93481C16.1099 7.94282 16.1902 7.9329 16.2663 7.90568C16.3424 7.87847 16.4128 7.8345 16.4732 7.77641C16.5336 7.71832 16.5828 7.64731 16.6178 7.56763C16.6528 7.48796 16.6729 7.40126 16.6769 7.31276C16.681 7.22426 16.6688 7.13578 16.6412 7.0526C16.6136 6.96943 16.5712 6.89328 16.5163 6.82874C16.4615 6.76421 16.3955 6.71261 16.3223 6.67703C16.3223 6.67703 16.0625 6.51446 16.0625 6.28644C16.0625 6.12378 16.091 6.06835 16.1924 5.94726C16.2938 5.82618 16.4856 5.67751 16.7119 5.495C16.9069 5.33772 17.1598 5.16329 17.3984 4.87828C17.6371 4.59326 17.8438 4.15961 17.8438 3.65513C17.8438 2.55697 16.916 2.07222 16.916 2.07222C16.8271 2.02183 16.7282 1.99709 16.6284 2.00027Z" fill="#FC6733"/>
</svg>

<svg width="24" height="24" viewBox="0 0 24 24" fill="none" xmlns="http://www.w3.org/2000/svg"><path d="M21.406 9.125H3.594A.593.593 0 0 0 3 9.719v10.687a.594.594 0 0 0 1.188 0v-5.343h1.187v5.343a.594.594 0 0 0 1.188 0v-5.343h11.875v5.343a.594.594 0 0 0 1.187 0v-5.343h1.188v5.343a.594.594 0 0 0 1.187 0V9.72a.593.593 0 0 0-.594-.594zM4.188 10.313h16.625v3.562H4.188v-3.563zM9.503 2a.562.562 0 0 0-.363.155.675.675 0 0 0-.2.37.722.722 0 0 0 .052.429.62.62 0 0 0 .28.3s.26.173.26.401c0 .163-.03.208-.13.329-.102.121-.294.27-.52.452-.195.158-.448.332-.687.617a1.964 1.964 0 0 0-.445 1.233c0 1.099.928 1.573.928 1.573a.552.552 0 0 0 .463.047.581.581 0 0 0 .207-.13.665.665 0 0 0 .145-.208.715.715 0 0 0-.102-.74.598.598 0 0 0-.194-.151s-.26-.163-.26-.39c0-.163.029-.219.13-.34.102-.12.294-.27.52-.452.195-.157.448-.332.686-.617.24-.285.446-.718.446-1.223 0-1.098-.928-1.583-.928-1.583A.547.547 0 0 0 9.503 2zm3.563 0a.562.562 0 0 0-.364.155.675.675 0 0 0-.2.37.722.722 0 0 0 .052.429c.06.132.159.238.28.3 0 0 .26.173.26.401 0 .163-.029.208-.13.329-.101.121-.293.27-.52.452-.195.158-.448.332-.686.617a1.964 1.964 0 0 0-.445 1.233c0 1.099.927 1.573.927 1.573a.553.553 0 0 0 .464.047.581.581 0 0 0 .207-.13.646.646 0 0 0 .144-.208.715.715 0 0 0-.101-.74.599.599 0 0 0-.194-.151s-.26-.163-.26-.39c0-.163.028-.219.13-.34.101-.12.293-.27.52-.452.194-.157.447-.332.686-.617a1.93 1.93 0 0 0 .445-1.223c0-1.098-.928-1.583-.928-1.583A.547.547 0 0 0 13.066 2zm3.562 0a.562.562 0 0 0-.363.155.675.675 0 0 0-.2.37.722.722 0 0 0 .052.429.62.62 0 0 0 .28.3s.26.173.26.401c0 .163-.03.208-.13.329-.102.121-.294.27-.52.452-.195.158-.448.332-.687.617a1.964 1.964 0 0 0-.445 1.233c0 1.099.928 1.573.928 1.573a.553.553 0 0 0 .463.047.581.581 0 0 0 .207-.13.665.665 0 0 0 .145-.208.715.715 0 0 0-.102-.74.599.599 0 0 0-.194-.151s-.26-.163-.26-.39c0-.163.029-.219.13-.34.102-.12.294-.27.52-.452.195-.157.448-.332.686-.617.24-.285.446-.718.446-1.223 0-1.098-.928-1.583-.928-1.583A.547.547 0 0 0 16.628 2z" fill="#FC6733"/></svg>
